images/50164369.svg

<?xml version="1.0" encoding="UTF-8"?>
<svg xmlns="http://www.w3.org/2000/svg" xmlns:xlink="http://www.w3.org/1999/xlink" width="300pt" height="300pt" viewBox="0 0 300 300" version="1.1">
<defs>
<g>
<symbol overflow="visible" id="glyph0-0">
<path style="stroke:none;" d="M 0.546875 1.9375 L 0.546875 -7.75 L 6.046875 -7.75 L 6.046875 1.9375 Z M 1.171875 1.328125 L 5.4375 1.328125 L 5.4375 -7.140625 L 1.171875 -7.140625 Z M 1.171875 1.328125 "/>
</symbol>
<symbol overflow="visible" id="glyph0-1">
<path style="stroke:none;" d="M 2.171875 -3.828125 L 2.171875 -0.890625 L 3.90625 -0.890625 C 4.488281 -0.890625 4.921875 -1.007812 5.203125 -1.25 C 5.484375 -1.488281 5.625 -1.859375 5.625 -2.359375 C 5.625 -2.859375 5.484375 -3.226562 5.203125 -3.46875 C 4.921875 -3.707031 4.488281 -3.828125 3.90625 -3.828125 Z M 2.171875 -7.125 L 2.171875 -4.703125 L 3.765625 -4.703125 C 4.296875 -4.703125 4.691406 -4.800781 4.953125 -5 C 5.210938 -5.207031 5.34375 -5.515625 5.34375 -5.921875 C 5.34375 -6.328125 5.210938 -6.628906 4.953125 -6.828125 C 4.691406 -7.023438 4.296875 -7.125 3.765625 -7.125 Z M 1.078125 -8.015625 L 3.84375 -8.015625 C 4.675781 -8.015625 5.316406 -7.84375 5.765625 -7.5 C 6.210938 -7.15625 6.4375 -6.664062 6.4375 -6.03125 C 6.4375 -5.539062 6.320312 -5.148438 6.09375 -4.859375 C 5.863281 -4.578125 5.523438 -4.398438 5.078125 -4.328125 C 5.609375 -4.210938 6.019531 -3.972656 6.3125 -3.609375 C 6.613281 -3.242188 6.765625 -2.789062 6.765625 -2.25 C 6.765625 -1.53125 6.519531 -0.972656 6.03125 -0.578125 C 5.550781 -0.191406 4.859375 0 3.953125 0 L 1.078125 0 Z M 1.078125 -8.015625 "/>
</symbol>
<symbol overflow="visible" id="glyph0-2">
<path style="stroke:none;" d="M 4.515625 -5.09375 C 4.410156 -5.15625 4.289062 -5.203125 4.15625 -5.234375 C 4.03125 -5.265625 3.890625 -5.28125 3.734375 -5.28125 C 3.171875 -5.28125 2.738281 -5.097656 2.4375 -4.734375 C 2.144531 -4.367188 2 -3.847656 2 -3.171875 L 2 0 L 1 0 L 1 -6.015625 L 2 -6.015625 L 2 -5.078125 C 2.195312 -5.441406 2.460938 -5.710938 2.796875 -5.890625 C 3.128906 -6.066406 3.535156 -6.15625 4.015625 -6.15625 C 4.085938 -6.15625 4.160156 -6.148438 4.234375 -6.140625 C 4.316406 -6.140625 4.410156 -6.128906 4.515625 -6.109375 Z M 4.515625 -5.09375 "/>
</symbol>
<symbol overflow="visible" id="glyph0-3">
<path style="stroke:none;" d="M 1.078125 -8.015625 L 2.546875 -8.015625 L 6.09375 -1.3125 L 6.09375 -8.015625 L 7.15625 -8.015625 L 7.15625 0 L 5.6875 0 L 2.125 -6.703125 L 2.125 0 L 1.078125 0 Z M 1.078125 -8.015625 "/>
</symbol>
<symbol overflow="visible" id="glyph0-4">
<path style="stroke:none;" d="M 1.078125 -8.015625 L 2.171875 -8.015625 L 2.171875 -4.734375 L 6.109375 -4.734375 L 6.109375 -8.015625 L 7.1875 -8.015625 L 7.1875 0 L 6.109375 0 L 6.109375 -3.8125 L 2.171875 -3.8125 L 2.171875 0 L 1.078125 0 Z M 1.078125 -8.015625 "/>
</symbol>
<symbol overflow="visible" id="glyph0-5">
<path style="stroke:none;" d="M 4.328125 -7.28125 C 3.546875 -7.28125 2.921875 -6.984375 2.453125 -6.390625 C 1.992188 -5.804688 1.765625 -5.007812 1.765625 -4 C 1.765625 -2.988281 1.992188 -2.1875 2.453125 -1.59375 C 2.921875 -1.007812 3.546875 -0.71875 4.328125 -0.71875 C 5.117188 -0.71875 5.742188 -1.007812 6.203125 -1.59375 C 6.660156 -2.1875 6.890625 -2.988281 6.890625 -4 C 6.890625 -5.007812 6.660156 -5.804688 6.203125 -6.390625 C 5.742188 -6.984375 5.117188 -7.28125 4.328125 -7.28125 Z M 4.328125 -8.171875 C 5.453125 -8.171875 6.351562 -7.789062 7.03125 -7.03125 C 7.707031 -6.28125 8.046875 -5.269531 8.046875 -4 C 8.046875 -2.738281 7.707031 -1.726562 7.03125 -0.96875 C 6.351562 -0.21875 5.453125 0.15625 4.328125 0.15625 C 3.203125 0.15625 2.300781 -0.21875 1.625 -0.96875 C 0.957031 -1.71875 0.625 -2.726562 0.625 -4 C 0.625 -5.269531 0.957031 -6.28125 1.625 -7.03125 C 2.300781 -7.789062 3.203125 -8.171875 4.328125 -8.171875 Z M 4.328125 -8.171875 "/>
</symbol>
</g>
</defs>
<g id="surface25981">
<rect x="0" y="0" width="300" height="300" style="fill:rgb(100%,100%,100%);fill-opacity:1;stroke:none;"/>
<path style="fill:none;stroke-width:1.2;stroke-linecap:butt;stroke-linejoin:miter;stroke:rgb(50%,30%,10%);stroke-opacity:1;stroke-miterlimit:10;" d="M 264.75 163.300781 L 252.566406 158.140625 "/>
<path style="fill:none;stroke-width:1.2;stroke-linecap:butt;stroke-linejoin:miter;stroke:rgb(0%,0%,0%);stroke-opacity:1;stroke-miterlimit:10;" d="M 252.566406 158.140625 L 240.382812 152.980469 "/>
<path style=" stroke:none;fill-rule:nonzero;fill:rgb(100%,100%,100%);fill-opacity:1;" d="M 258.75 156.800781 L 270.75 156.800781 L 270.75 169.800781 L 258.75 169.800781 Z M 258.75 156.800781 "/>
<g style="fill:rgb(50%,30%,10%);fill-opacity:1;">
  <use xlink:href="#glyph0-1" x="258.75" y="166.702148"/>
  <use xlink:href="#glyph0-2" x="266.071289" y="166.702148"/>
</g>
<path style="fill:none;stroke-width:1.2;stroke-linecap:butt;stroke-linejoin:miter;stroke:rgb(0%,0%,0%);stroke-opacity:1;stroke-miterlimit:10;" d="M 240.382812 152.980469 L 219.257812 168.925781 "/>
<path style="fill:none;stroke-width:1.2;stroke-linecap:butt;stroke-linejoin:miter;stroke:rgb(0%,0%,0%);stroke-opacity:1;stroke-miterlimit:10;" d="M 234.519531 149.605469 L 217.621094 162.359375 "/>
<path style="fill:none;stroke-width:1.2;stroke-linecap:butt;stroke-linejoin:miter;stroke:rgb(0%,0%,0%);stroke-opacity:1;stroke-miterlimit:10;" d="M 237.132812 126.71875 L 240.382812 152.980469 "/>
<path style="fill:none;stroke-width:1.2;stroke-linecap:butt;stroke-linejoin:miter;stroke:rgb(0%,0%,0%);stroke-opacity:1;stroke-miterlimit:10;" d="M 219.257812 168.925781 L 194.890625 158.605469 "/>
<path style="fill:none;stroke-width:1.2;stroke-linecap:butt;stroke-linejoin:miter;stroke:rgb(0%,0%,0%);stroke-opacity:1;stroke-miterlimit:10;" d="M 194.890625 158.605469 L 184.332031 166.578125 "/>
<path style="fill:none;stroke-width:1.2;stroke-linecap:butt;stroke-linejoin:miter;stroke:rgb(0%,0%,100%);stroke-opacity:1;stroke-miterlimit:10;" d="M 184.332031 166.578125 L 173.769531 174.550781 "/>
<path style="fill:none;stroke-width:1.2;stroke-linecap:butt;stroke-linejoin:miter;stroke:rgb(0%,0%,0%);stroke-opacity:1;stroke-miterlimit:10;" d="M 194.890625 158.605469 L 191.644531 132.339844 "/>
<path style="fill:none;stroke-width:1.2;stroke-linecap:butt;stroke-linejoin:miter;stroke:rgb(0%,0%,0%);stroke-opacity:1;stroke-miterlimit:10;" d="M 200.746094 155.214844 L 198.148438 134.203125 "/>
<path style="fill:none;stroke-width:1.2;stroke-linecap:butt;stroke-linejoin:miter;stroke:rgb(0%,0%,100%);stroke-opacity:1;stroke-miterlimit:10;" d="M 173.769531 174.550781 L 161.585938 169.390625 "/>
<path style="fill:none;stroke-width:1.2;stroke-linecap:butt;stroke-linejoin:miter;stroke:rgb(0%,0%,0%);stroke-opacity:1;stroke-miterlimit:10;" d="M 161.585938 169.390625 L 149.402344 164.230469 "/>
<path style=" stroke:none;fill-rule:nonzero;fill:rgb(100%,100%,100%);fill-opacity:1;" d="M 165.769531 168.050781 L 182.769531 168.050781 L 182.769531 181.050781 L 165.769531 181.050781 Z M 165.769531 168.050781 "/>
<g style="fill:rgb(0%,0%,100%);fill-opacity:1;">
  <use xlink:href="#glyph0-3" x="165.769531" y="177.952148"/>
  <use xlink:href="#glyph0-4" x="173.75293" y="177.952148"/>
</g>
<path style="fill:none;stroke-width:1.2;stroke-linecap:butt;stroke-linejoin:miter;stroke:rgb(0%,0%,0%);stroke-opacity:1;stroke-miterlimit:10;" d="M 152.492188 163.847656 L 150.867188 150.714844 "/>
<path style="fill:none;stroke-width:1.2;stroke-linecap:butt;stroke-linejoin:miter;stroke:rgb(100%,0%,0%);stroke-opacity:1;stroke-miterlimit:10;" d="M 150.867188 150.714844 L 149.242188 137.582031 "/>
<path style="fill:none;stroke-width:1.2;stroke-linecap:butt;stroke-linejoin:miter;stroke:rgb(0%,0%,0%);stroke-opacity:1;stroke-miterlimit:10;" d="M 146.3125 164.609375 L 144.6875 151.480469 "/>
<path style="fill:none;stroke-width:1.2;stroke-linecap:butt;stroke-linejoin:miter;stroke:rgb(100%,0%,0%);stroke-opacity:1;stroke-miterlimit:10;" d="M 144.6875 151.480469 L 143.0625 138.347656 "/>
<path style="fill:none;stroke-width:1.2;stroke-linecap:butt;stroke-linejoin:miter;stroke:rgb(0%,0%,0%);stroke-opacity:1;stroke-miterlimit:10;" d="M 149.402344 164.230469 L 138.839844 172.199219 "/>
<path style="fill:none;stroke-width:1.2;stroke-linecap:butt;stroke-linejoin:miter;stroke:rgb(0%,0%,100%);stroke-opacity:1;stroke-miterlimit:10;" d="M 138.839844 172.199219 L 128.277344 180.171875 "/>
<path style=" stroke:none;fill-rule:nonzero;fill:rgb(100%,100%,100%);fill-opacity:1;" d="M 142.152344 131.464844 L 151.152344 131.464844 L 151.152344 144.464844 L 142.152344 144.464844 Z M 142.152344 131.464844 "/>
<g style="fill:rgb(100%,0%,0%);fill-opacity:1;">
  <use xlink:href="#glyph0-5" x="142.152344" y="141.366211"/>
</g>
<path style="fill:none;stroke-width:1.2;stroke-linecap:butt;stroke-linejoin:miter;stroke:rgb(0%,0%,100%);stroke-opacity:1;stroke-miterlimit:10;" d="M 128.277344 180.171875 L 116.09375 175.011719 "/>
<path style="fill:none;stroke-width:1.2;stroke-linecap:butt;stroke-linejoin:miter;stroke:rgb(0%,0%,0%);stroke-opacity:1;stroke-miterlimit:10;" d="M 116.09375 175.011719 L 103.910156 169.851562 "/>
<path style=" stroke:none;fill-rule:nonzero;fill:rgb(100%,100%,100%);fill-opacity:1;" d="M 120.277344 173.671875 L 137.277344 173.671875 L 137.277344 186.671875 L 120.277344 186.671875 Z M 120.277344 173.671875 "/>
<g style="fill:rgb(0%,0%,100%);fill-opacity:1;">
  <use xlink:href="#glyph0-3" x="120.277344" y="183.573242"/>
  <use xlink:href="#glyph0-4" x="128.260742" y="183.573242"/>
</g>
<path style="fill:none;stroke-width:1.2;stroke-linecap:butt;stroke-linejoin:miter;stroke:rgb(0%,0%,0%);stroke-opacity:1;stroke-miterlimit:10;" d="M 103.910156 169.851562 L 92.574219 176.675781 "/>
<path style="fill:none;stroke-width:1.2;stroke-linecap:butt;stroke-linejoin:miter;stroke:rgb(0%,0%,100%);stroke-opacity:1;stroke-miterlimit:10;" d="M 92.574219 176.675781 L 81.238281 183.5 "/>
<path style="fill:none;stroke-width:1.2;stroke-linecap:butt;stroke-linejoin:miter;stroke:rgb(0%,0%,0%);stroke-opacity:1;stroke-miterlimit:10;" d="M 97.9375 144.074219 L 103.910156 169.851562 "/>
<path style="fill:none;stroke-width:1.2;stroke-linecap:butt;stroke-linejoin:miter;stroke:rgb(0%,0%,0%);stroke-opacity:1;stroke-miterlimit:10;" d="M 92.46875 148.054688 L 97.246094 168.679688 "/>
<path style="fill:none;stroke-width:1.2;stroke-linecap:butt;stroke-linejoin:miter;stroke:rgb(0%,0%,100%);stroke-opacity:1;stroke-miterlimit:10;" d="M 81.238281 183.5 L 61.25 166.15625 "/>
<path style="fill:none;stroke-width:1.2;stroke-linecap:butt;stroke-linejoin:miter;stroke:rgb(0%,0%,100%);stroke-opacity:1;stroke-miterlimit:10;" d="M 81.238281 183.5 L 80.097656 196.683594 "/>
<path style="fill:none;stroke-width:1.2;stroke-linecap:butt;stroke-linejoin:miter;stroke:rgb(0%,0%,0%);stroke-opacity:1;stroke-miterlimit:10;" d="M 80.097656 196.683594 L 78.953125 209.867188 "/>
<path style=" stroke:none;fill-rule:nonzero;fill:rgb(100%,100%,100%);fill-opacity:1;" d="M 77.238281 177 L 85.238281 177 L 85.238281 190 L 77.238281 190 Z M 77.238281 177 "/>
<g style="fill:rgb(0%,0%,100%);fill-opacity:1;">
  <use xlink:href="#glyph0-3" x="77.238281" y="186.901367"/>
</g>
<path style="fill:none;stroke-width:1.2;stroke-linecap:butt;stroke-linejoin:miter;stroke:rgb(0%,0%,100%);stroke-opacity:1;stroke-miterlimit:10;" d="M 61.25 166.15625 L 66.410156 153.972656 "/>
<path style="fill:none;stroke-width:1.2;stroke-linecap:butt;stroke-linejoin:miter;stroke:rgb(0%,0%,0%);stroke-opacity:1;stroke-miterlimit:10;" d="M 66.410156 153.972656 L 71.570312 141.789062 "/>
<path style="fill:none;stroke-width:1.2;stroke-linecap:butt;stroke-linejoin:miter;stroke:rgb(0%,0%,100%);stroke-opacity:1;stroke-miterlimit:10;" d="M 68.015625 166.148438 L 72.144531 156.398438 "/>
<path style="fill:none;stroke-width:1.2;stroke-linecap:butt;stroke-linejoin:miter;stroke:rgb(0%,0%,0%);stroke-opacity:1;stroke-miterlimit:10;" d="M 72.144531 156.398438 L 76.273438 146.652344 "/>
<path style=" stroke:none;fill-rule:nonzero;fill:rgb(100%,100%,100%);fill-opacity:1;" d="M 57.25 159.65625 L 65.25 159.65625 L 65.25 172.65625 L 57.25 172.65625 Z M 57.25 159.65625 "/>
<g style="fill:rgb(0%,0%,100%);fill-opacity:1;">
  <use xlink:href="#glyph0-3" x="57.25" y="169.557617"/>
</g>
<path style="fill:none;stroke-width:1.2;stroke-linecap:butt;stroke-linejoin:miter;stroke:rgb(0%,0%,0%);stroke-opacity:1;stroke-miterlimit:10;" d="M 71.570312 141.789062 L 97.9375 144.074219 "/>
<path style="fill:none;stroke-width:1.2;stroke-linecap:butt;stroke-linejoin:miter;stroke:rgb(0%,0%,0%);stroke-opacity:1;stroke-miterlimit:10;" d="M 71.570312 141.789062 L 57.921875 119.113281 "/>
<path style="fill:none;stroke-width:1.2;stroke-linecap:butt;stroke-linejoin:miter;stroke:rgb(0%,0%,0%);stroke-opacity:1;stroke-miterlimit:10;" d="M 57.921875 119.113281 L 80.59375 105.464844 "/>
<path style="fill:none;stroke-width:1.2;stroke-linecap:butt;stroke-linejoin:miter;stroke:rgb(0%,0%,0%);stroke-opacity:1;stroke-miterlimit:10;" d="M 57.921875 119.113281 L 35.25 132.765625 "/>
<path style="fill:none;stroke-width:1.2;stroke-linecap:butt;stroke-linejoin:miter;stroke:rgb(0%,0%,0%);stroke-opacity:1;stroke-miterlimit:10;" d="M 57.921875 119.113281 L 44.273438 96.441406 "/>
<path style="fill:none;stroke-width:1.2;stroke-linecap:butt;stroke-linejoin:miter;stroke:rgb(0%,0%,0%);stroke-opacity:1;stroke-miterlimit:10;" d="M 191.644531 132.339844 L 212.765625 116.398438 "/>
<path style="fill:none;stroke-width:1.2;stroke-linecap:butt;stroke-linejoin:miter;stroke:rgb(0%,0%,0%);stroke-opacity:1;stroke-miterlimit:10;" d="M 212.765625 116.398438 L 211.140625 103.265625 "/>
<path style="fill:none;stroke-width:1.2;stroke-linecap:butt;stroke-linejoin:miter;stroke:rgb(50%,30%,10%);stroke-opacity:1;stroke-miterlimit:10;" d="M 211.140625 103.265625 L 209.519531 90.132812 "/>
<path style="fill:none;stroke-width:1.2;stroke-linecap:butt;stroke-linejoin:miter;stroke:rgb(0%,0%,0%);stroke-opacity:1;stroke-miterlimit:10;" d="M 212.765625 116.398438 L 237.132812 126.71875 "/>
<path style="fill:none;stroke-width:1.2;stroke-linecap:butt;stroke-linejoin:miter;stroke:rgb(0%,0%,0%);stroke-opacity:1;stroke-miterlimit:10;" d="M 212.773438 123.164062 L 232.269531 131.417969 "/>
<path style=" stroke:none;fill-rule:nonzero;fill:rgb(100%,100%,100%);fill-opacity:1;" d="M 203.519531 83.632812 L 215.519531 83.632812 L 215.519531 96.632812 L 203.519531 96.632812 Z M 203.519531 83.632812 "/>
<g style="fill:rgb(50%,30%,10%);fill-opacity:1;">
  <use xlink:href="#glyph0-1" x="203.519531" y="93.53418"/>
  <use xlink:href="#glyph0-2" x="210.84082" y="93.53418"/>
</g>
</g>
</svg>

<svg xmlns="http://www.w3.org/2000/svg" xmlns:xlink="http://www.w3.org/1999/xlink" width="300pt" height="300pt" viewBox="0 0 300 300"><defs><symbol overflow="visible"><path d="M.547 1.938V-7.75h5.5v9.688zm.625-.61h4.266v-8.47H1.171zm0 0"/></symbol><symbol overflow="visible" id="a"><path d="M2.172-3.828V-.89h1.734c.582 0 1.016-.118 1.297-.36.28-.238.422-.61.422-1.11 0-.5-.14-.867-.422-1.11-.28-.237-.715-.358-1.297-.358zm0-3.297v2.422h1.594c.53 0 .925-.098 1.187-.297.258-.207.39-.516.39-.922s-.132-.707-.39-.906c-.262-.195-.656-.297-1.187-.297zm-1.094-.89h2.766c.832 0 1.472.17 1.922.515.445.344.67.836.67 1.47.002.49-.116.882-.342 1.17-.23.282-.57.462-1.016.532.53.117.942.355 1.234.72.3.366.454.82.454 1.358 0 .72-.246 1.277-.735 1.672C5.55-.19 4.86 0 3.954 0H1.078zm0 0"/></symbol><symbol overflow="visible" id="b"><path d="M4.516-5.094c-.106-.062-.227-.11-.36-.14-.125-.032-.265-.047-.422-.047-.562 0-.996.182-1.296.546C2.144-4.367 2-3.848 2-3.172V0H1v-6.016h1v.938c.195-.363.46-.633.797-.813.332-.176.738-.266 1.22-.266.07 0 .143.008.217.015.082 0 .176.01.282.03zm0 0"/></symbol><symbol overflow="visible" id="c"><path d="M1.078-8.016h1.47l3.546 6.704v-6.704h1.062V0H5.688L2.124-6.703V0H1.078zm0 0"/></symbol><symbol overflow="visible" id="d"><path d="M1.078-8.016h1.094v3.282H6.11v-3.282h1.077V0H6.11v-3.813H2.17V0H1.078zm0 0"/></symbol><symbol overflow="visible" id="e"><path d="M4.328-7.28c-.78 0-1.406.296-1.875.89-.46.585-.687 1.382-.687 2.39 0 1.012.226 1.813.687 2.406.47.586 1.094.875 1.875.875.79 0 1.414-.288 1.875-.874.457-.593.688-1.394.688-2.406 0-1.008-.23-1.805-.687-2.39-.46-.594-1.086-.89-1.875-.89zm0-.892c1.125 0 2.024.383 2.703 1.14C7.708-6.28 8.048-5.27 8.048-4c0 1.262-.34 2.273-1.016 3.03C6.353-.22 5.454.157 4.33.157S2.3-.22 1.625-.97c-.668-.75-1-1.757-1-3.03 0-1.27.332-2.28 1-3.03.676-.76 1.578-1.142 2.703-1.142zm0 0"/></symbol></defs><g><path fill="#fff" d="M0 0h300v300H0z"/><path d="M264.75 163.3l-12.184-5.16" stroke-width="1.2" stroke="#7f4d1a" stroke-miterlimit="10" fill="none"/><path d="M252.566 158.14l-12.183-5.16" stroke-width="1.2" stroke="#000" stroke-miterlimit="10" fill="none"/><path d="M258.75 156.8h12v13h-12zm0 0" fill="#fff"/><g fill="#7f4d1a"><use xlink:href="#a" x="258.75" y="166.702"/><use xlink:href="#b" x="266.071" y="166.702"/></g><path d="M240.383 152.98l-21.125 15.946M234.52 149.605l-16.9 12.754M237.133 126.72l3.25 26.26M219.258 168.926l-24.367-10.32M194.89 158.605l-10.558 7.973" stroke-width="1.2" stroke="#000" stroke-miterlimit="10" fill="none"/><path d="M184.332 166.578l-10.562 7.973" stroke-width="1.2" stroke="#00f" stroke-miterlimit="10" fill="none"/><path d="M194.89 158.605l-3.245-26.265M200.746 155.215l-2.598-21.012" stroke-width="1.2" stroke="#000" stroke-miterlimit="10" fill="none"/><path d="M173.77 174.55l-12.184-5.16" stroke-width="1.2" stroke="#00f" stroke-miterlimit="10" fill="none"/><path d="M161.586 169.39l-12.184-5.16" stroke-width="1.2" stroke="#000" stroke-miterlimit="10" fill="none"/><path d="M165.77 168.05h17v13h-17zm0 0" fill="#fff"/><g fill="#00f"><use xlink:href="#c" x="165.77" y="177.952"/><use xlink:href="#d" x="173.753" y="177.952"/></g><path d="M152.492 163.848l-1.625-13.133" stroke-width="1.2" stroke="#000" stroke-miterlimit="10" fill="none"/><path d="M150.867 150.715l-1.625-13.133" stroke-width="1.2" stroke="#f00" stroke-miterlimit="10" fill="none"/><path d="M146.313 164.61l-1.625-13.13" stroke-width="1.2" stroke="#000" stroke-miterlimit="10" fill="none"/><path d="M144.688 151.48l-1.625-13.132" stroke-width="1.2" stroke="#f00" stroke-miterlimit="10" fill="none"/><path d="M149.402 164.23l-10.562 7.97" stroke-width="1.2" stroke="#000" stroke-miterlimit="10" fill="none"/><path d="M138.84 172.2l-10.563 7.972" stroke-width="1.2" stroke="#00f" stroke-miterlimit="10" fill="none"/><path d="M142.152 131.465h9v13h-9zm0 0" fill="#fff"/><use xlink:href="#e" x="142.152" y="141.366" fill="#f00"/><path d="M128.277 180.172l-12.183-5.16" stroke-width="1.2" stroke="#00f" stroke-miterlimit="10" fill="none"/><path d="M116.094 175.012l-12.184-5.16" stroke-width="1.2" stroke="#000" stroke-miterlimit="10" fill="none"/><path d="M120.277 173.672h17v13h-17zm0 0" fill="#fff"/><g fill="#00f"><use xlink:href="#c" x="120.277" y="183.573"/><use xlink:href="#d" x="128.261" y="183.573"/></g><path d="M103.91 169.852l-11.336 6.824" stroke-width="1.2" stroke="#000" stroke-miterlimit="10" fill="none"/><path d="M92.574 176.676L81.238 183.5" stroke-width="1.2" stroke="#00f" stroke-miterlimit="10" fill="none"/><path d="M97.938 144.074l5.972 25.778M92.47 148.055l4.776 20.625" stroke-width="1.2" stroke="#000" stroke-miterlimit="10" fill="none"/><path d="M81.238 183.5L61.25 166.156M81.238 183.5l-1.14 13.184" stroke-width="1.2" stroke="#00f" stroke-miterlimit="10" fill="none"/><path d="M80.098 196.684l-1.145 13.183" stroke-width="1.2" stroke="#000" stroke-miterlimit="10" fill="none"/><path d="M77.238 177h8v13h-8zm0 0" fill="#fff"/><use xlink:href="#c" x="77.238" y="186.901" fill="#00f"/><path d="M61.25 166.156l5.16-12.183" stroke-width="1.2" stroke="#00f" stroke-miterlimit="10" fill="none"/><path d="M66.41 153.973l5.16-12.184" stroke-width="1.2" stroke="#000" stroke-miterlimit="10" fill="none"/><path d="M68.016 166.148l4.13-9.75" stroke-width="1.2" stroke="#00f" stroke-miterlimit="10" fill="none"/><path d="M72.145 156.398l4.128-9.746" stroke-width="1.2" stroke="#000" stroke-miterlimit="10" fill="none"/><path d="M57.25 159.656h8v13h-8zm0 0" fill="#fff"/><use xlink:href="#c" x="57.25" y="169.558" fill="#00f"/><path d="M71.57 141.79l26.368 2.284M71.57 141.79l-13.648-22.677M57.922 119.113l22.672-13.648M57.922 119.113L35.25 132.766M57.922 119.113L44.272 96.44M191.645 132.34l21.12-15.942M212.766 116.398l-1.625-13.132" stroke-width="1.2" stroke="#000" stroke-miterlimit="10" fill="none"/><path d="M211.14 103.266l-1.62-13.133" stroke-width="1.2" stroke="#7f4d1a" stroke-miterlimit="10" fill="none"/><path d="M212.766 116.398l24.367 10.32M212.773 123.164l19.497 8.254" stroke-width="1.2" stroke="#000" stroke-miterlimit="10" fill="none"/><path d="M203.52 83.633h12v13h-12zm0 0" fill="#fff"/><g fill="#7f4d1a"><use xlink:href="#a" x="203.52" y="93.534"/><use xlink:href="#b" x="210.841" y="93.534"/></g></g></svg>
